src/assets/icons/weeks,fancy,09.svg

<svg width="48" height="48" viewBox="0 0 48 48" fill="none" xmlns="http://www.w3.org/2000/svg">
<rect opacity="0.2" x="4" y="6" width="40" height="40" rx="4" fill="black"/>
<path d="M23.7763 20.358C19.2223 20.3381 16.1499 23.321 16.1697 27.4176C16.1797 31.2159 18.8146 33.9702 22.424 33.9702C24.6612 33.9702 26.6499 32.8864 27.5547 31.0966H27.6939C27.6839 35.1335 26.282 37.5895 23.6271 37.5895C22.0661 37.5895 20.9425 36.7344 20.6143 35.2528H16.3686C16.7663 38.6832 19.5504 41.2784 23.6271 41.2784C28.6683 41.2784 31.9197 37.2017 31.9098 30.2912C31.8999 22.9134 27.9624 20.3778 23.7763 20.358ZM23.8061 23.7386C25.7848 23.7386 27.2464 25.3494 27.2663 27.2884C27.2763 29.2372 25.7351 30.848 23.7663 30.848C21.7777 30.848 20.3558 29.2969 20.3459 27.2983C20.326 25.3097 21.8075 23.7386 23.8061 23.7386Z" fill="black"/>
<g opacity="0.4">
<path d="M10 4C10 2.89543 10.8954 2 12 2C13.1046 2 14 2.89543 14 4V8C14 9.10457 13.1046 10 12 10C10.8954 10 10 9.10457 10 8V4Z" fill="black"/>
<path d="M34 4C34 2.89543 34.8954 2 36 2C37.1046 2 38 2.89543 38 4V8C38 9.10457 37.1046 10 36 10C34.8954 10 34 9.10457 34 8V4Z" fill="black"/>
</g>
<path fill-rule="evenodd" clip-rule="evenodd" d="M10 6.00869C7.52043 6.04456 6.11466 6.22849 5.17157 7.17157C4 8.34315 4 10.2288 4 14V16H44V14C44 10.2288 44 8.34315 42.8284 7.17157C41.8853 6.22849 40.4796 6.04456 38 6.00869V8C38 9.10457 37.1046 10 36 10C34.8954 10 34 9.10457 34 8V6H14V8C14 9.10457 13.1046 10 12 10C10.8954 10 10 9.10457 10 8V6.00869Z" fill="black"/>
</svg>

<svg xmlns="http://www.w3.org/2000/svg" width="48" height="48" fill="none" viewBox="0 0 48 48">
  <rect width="40" height="40" x="4" y="6" fill="#000" opacity=".2" rx="4"/>
  <path fill="#000" d="M23.776 20.358c-4.554-.02-7.626 2.963-7.606 7.06.01 3.798 2.645 6.552 6.254 6.552 2.237 0 4.226-1.084 5.13-2.873h.14c-.01 4.036-1.412 6.492-4.067 6.492-1.56 0-2.684-.855-3.013-2.336H16.37c.397 3.43 3.181 6.025 7.258 6.025 5.041 0 8.293-4.076 8.283-10.987-.01-7.378-3.948-9.913-8.134-9.933zm.03 3.38c1.979 0 3.44 1.611 3.46 3.55.01 1.95-1.53 3.56-3.5 3.56-1.988 0-3.41-1.551-3.42-3.55-.02-1.988 1.462-3.56 3.46-3.56z"/>
  <g opacity=".4">
    <path fill="#000" d="M10 4a2 2 0 114 0v4a2 2 0 11-4 0V4zM34 4a2 2 0 114 0v4a2 2 0 11-4 0V4z"/>
  </g>
  <path fill="#000" fill-rule="evenodd" d="M10 6.009c-2.48.036-3.885.22-4.828 1.163C4 8.343 4 10.229 4 14v2h40v-2c0-3.771 0-5.657-1.172-6.828-.943-.944-2.348-1.127-4.828-1.163V8a2 2 0 11-4 0V6H14v2a2 2 0 11-4 0V6.009z" clip-rule="evenodd"/>
</svg>
